!!!OTL: WEM GOTT WILL RECHTE GUNST ERWEISEN
!!!ARE: Europa, Mitteleuropa, Deutschland
!!!SCT: B0508
!!!YEM: Copyright 1995, estate of Helmut Schaffrath.
**kern
*ICvox
*Ivox
*M4/4
*k[f#c#]
*D:
{4D
=1
4F#
4A
8.d
16c#
8d
8B
=2
2A
4F#}
{4A
=3
8.G
16F#
8G
8E
4F#
4D
=4
2E
4r}
{8E
8F#
=5
4.G
8G
8.F#
16F#
8G
8A
=6
2B
4A}
{4A
=7
8.d
16cn
8d
8e
4f#
4e
=8
2d
4r}
==
!!!AGN: Wander - Lied
!!!ONB: ESAC (Essen Associative Code) Database: BOEHME
!!!AMT: simple quadruple
!!!AIN: vox
!!!EED: Helmut Schaffrath
!!!EEV: 1.0
*-
